X: 61
T: Martin Wynne's Reel no. 1
R: reel
Z: 2012 John Chambers <jc@trillian.mit.edu>
B: "100 Essential Irish Session Tunes" 1995 Dave Mallinson, ed.
M: 4/4
L: 1/8
K: D
B |\
"D"AF~F2 "A7"GEEG | "Bm"F2AF "Em"EFDB, | "D"A,B,DE "Bm"FEFB | "Em"ABde "A"fedB |
"D"AF~F2 "A7"GEEG | "D"F2AF "G"EFDB, | "D"A,B,DE "Bm"FEFB | "A"ABde "D"fd d :|
|: e |\
"D"faaf "A7"gfeg | "Bm"fedf "Em"edBc | "D"dBAF "Bm"DEFB | "Em"ABde "A7"feeg |
"D"dfaf "A7"gfeg | "D"fedf "G"edBc | "D"dBAF "Bm"DEFB | "A"ABde "D"fd d :|

%%sep 2 1 500
%%sep 1 1 500

